**kern	**kern
*staff2	*staff1
=1-	=1-
*clefF4	*clefG2
*k[b-e-a-d-g-]	*k[b-e-a-d-g-]
*D-:	*D-:
*M3/4	*M3/4
2.r	4dd-\
.	8ff\L 8aa-\
.	8ff\J 8aa-\
.	8ff\L 8aa-\
.	8ff\J 8aa-\
=2	=2
2.r	4a-/
.	4ff\ 4aa-\
.	4ff\ 4aa-\
=3	=3
2.r	4dd-\
.	8ff\L 8aa-\
.	8ff\J 8aa-\
.	8ff\L 8aa-\
.	8ff\J 8aa-\
=4	=4
4r	4a-/
8r	4ff\ 4aa-\
8AA-/	.
8BB-/L	4ff\ 4aa-\
8C/J	.
=5	=5
8D-\L	4dd-\
8E-\J	.
8F\L	8ff\L 8aa-\
8G-\J	8ff\J 8aa-\
8A-\L	8ff\L 8aa-\
8B-\J	8ff\J 8aa-\
=6	=6
8c\L	4a-/
8d-\J	.
8e-\L	4ff\ 4aa-\
8d-\J	.
8e-\L	4ff\ 4aa-\
8f\J	.
=7	=7
!!linebreak:original
2g-\	4ee-\
.	8gg-\L 8aa-\
.	8gg-\J 8aa-\
8g-\L	8gg-\L 8aa-\
8f\J	8gg-\J 8aa-\
=8	=8
4.e-\	4a-/
.	4gg-\ 4aa-\
8dn\	.
8f\L	4gg-\ 4aa-\
8e-\J	.
=9	=9
8d-\L	4dd-\
8c\J	.
8B-\L	8ff\L 8aa-\
8A-\J	8ff\J 8aa-\
8G-\L	8ff\L 8aa-\
8F\J	8ff\J 8aa-\
=10	=10
8En\L	4a-/
8F\J	.
8G-\L	4ff\ 4aa-\
8F\J	.
8D-/L	4ff\ 4aa-\
8C/J	.
=11	=11
2BB-/	4ff\
.	8aa-\L 8ccc\
.	8aa-\J 8ccc\
4AA-/	8aa-\L 8ccc\
.	8aa-\J 8ccc\
=12	=12
!!linebreak:original
4r	4cc\
8r	4aa-\ 4ccc\
8CC/	.
8DDn/L	4aa-\ 4ccc\
8EEn/J	.
=13	=13
8GG-/L	4ff\
8FF/J	.
8AA-/L	8aa-\L 8ccc\
8FF/J	8aa-\J 8ccc\
8AA-/L	8aa-\L 8ccc\
8C/J	8aa-\J 8ccc\
=14	=14
8G-\L	4cc\
8F\J	.
8A-\L	4aa-\ 4ccc\
8F\J	.
8A-\L	4aa-\ 4ccc\
8c\J	.
=15	=15
2f\	4dd-\
.	8aa-\L 8bb-\
.	8aa-\J 8bb-\
4B-\	8aa-\L 8bb-\
.	8aa-\J 8bb-\
=16	=16
4.B-\	4b-\
.	4aa-\ 4bb-\
8a-\	.
8gn\L	4aa-\ 4bb-\
8d-\J	.
=17	=17
!!linebreak:original
8en\L	4cc\
8c\J	.
8e-\L	8ggn\L 8ccc\
8c-\J	8gg\J 8ccc\
8dn\L	8gg\L 8ccc\
8B-\J	8gg\J 8ccc\
=18	=18
4c#\	4cc#\
4.An\	4aan\ 4ccc#\
.	4aa\ 4ccc#\
8Gn\	.
=19	=19
2.F\	4ddn\
.	8aan\L 8dddn\
.	8aa\J 8ddd\
.	8aa\L 8ddd\
.	8aa\J 8ddd\
=20	=20
4F\	4cc\
8r	4aan\ 4dddn\
8D-\	.
8En\L	4aa\ 4ddd\
8F#\J	.
=21	=21
4.G-\	4bn\
.	8ggn\L 8dddn\
8dn\	8gg\J 8ddd\
8en\L	8gg\L 8ddd\
8d\J	8gg\J 8ddd\
=22	=22
!!linebreak:original
4.F\	4bn\
.	4aa-\ 4dddn\
8dn\	.
8en\L	4aa-\ 4ddd\
8d\J	.
=23	=23
8f\L	4b-\
8en\J	.
8e\L	8aa-\L 8bb-\
8e-\J	8aa-\J 8bb-\
8e-\L	8aa-\L 8bb-\
8dn\J	8aa-\J 8bb-\
=24	=24
4.dn\	4cc\
.	4aa-\ 4ccc\
8G-\	.
8A-\L	4aa-\ 4ccc\
8Bn\J	.
=25	=25
8c\	4dd-\
4Bn\	.
.	8aa-\L 8ddd-\
8c\	8aa-\J 8ddd-\
8d-\L	8aa-\L 8ddd-\
8e-\J	8aa-\J 8ddd-\
*clefG2	*
=26	=26
4en/	4dd-\
4.f/	4aa-\ 4ddd-\
.	4aa-\ 4ddd-\
8gn/	.
=27	=27
!!pagebreak:original
2gn/	4ddn\
.	8aa-\L 8dddn\
.	8aa-\J 8ddd\
4f/	8aa-\L 8ddd\
.	8aa-\J 8ddd\
=28	=28
8b-/L	4r
8f/J	.
8d-/L	4fff\
8B-/J	.
8c/L	4ddd-\
8d-/J	.
*clefF4	*
=29	=29
8e-\L	4ccc\
8c\J	.
8A-\L	4ccc-\
8E-\J	.
8F\L	4bb-\
8G-\J	.
=30	=30
8Gn\L	4.aan\
8En\J	.
2GGn/	.
.	8aa-\
.	8ggn\L
.	8een\J
=31	=31
2.GGn/	8ee-\L
.	8gg-\J
.	8g-/L
.	8dd-/J
.	8cc\L
.	8b-\J
=32	=32
!!linebreak:original
2.GGn/	8f/L
.	8dd-/J
.	8cc\L
.	8b-\J
.	8en/L
.	8dd-/J
=33	=33
2.GGn/	8aa-\L
.	8ggn\J
.	8dd-\L
.	8cc\J
.	8ccc\L
.	8cc\J
=34	=34
4.FF/	4ff\
.	8aa-\L 8ccc\
8GG-/	8aa-\J 8ccc\
8AA-/L	8aa-\L 8ccc\
8BB-/J	8aa-\J 8ccc\
=35	=35
8BBn/L	4cc\
8C/J	.
8D-\L	4aa-\ 4ccc\
8A-\J	.
8E-\L	4aa-\ 4ccc\
8A-\J	.
=36	=36
8En\L	4ff\
8c\J	.
2F\	8aa-\L 8ccc\
.	8aa-\J 8ccc\
.	8aa-\L 8ccc\
.	8aa-\J 8ccc\
=37	=37
!!linebreak:original
8F\L	4cc\
8Gn\J	.
8A-\L	4aa-\ 4ccc\
8B-\J	.
8c\L	4aa-\ 4ccc\
8d-\J	.
=38	=38
4.e-\	4ff\
.	8aa-\L 8ccc\
8c\	8aa-\J 8ccc\
4e-\	8aa-\L 8ccc\
.	8aa-\J 8ccc\
=39	=39
4.e-\	4cc\
.	4aa-\ 4ccc\
8c\	.
4e-\	4aa-\ 4ccc\
=40	=40
8e-\L	4aa-\ 4ccc\
8dn\J	.
8f\L	4r
8an\J	.
4r	8ddn\L
.	8ff\J
=41	=41
2.r	4aan\
.	4bb-\
.	4ccc\
=42	=42
4D-\	4ddd-\
8A-\L 8f\	4r
8A-\J 8f\	.
8A-\L 8f\	4r
8A-\J 8f\	.
=43	=43
!!linebreak:original
4C/	4r
4A-\ 4f\	8r
.	8a-/
4A-\ 4f\	8b-\L
.	8cc\J
=44	=44
4D-\	8dd-\L
.	8ee-\J
8A-\L 8f\	8ff\L
8A-\J 8f\	8gg-\J
8A-\L 8f\	8aa-\L
8A-\J 8f\	8bb-\J
=45	=45
4AA-/	8ccc\L
.	8ddd-\J
4A-\ 4f\	8eee-\L
.	8ddd-\J
4A-\ 4f\	8eee-\L
.	8fff\J
=46	=46
4E-\	[2ggg-\
8A-\L 8g-\	.
8A-\J 8g-\	.
8A-\L 8g-\	8ggg-\L]
8A-\J 8g-\	8fff\J
=47	=47
4AA-/	4.eee-\
4A-\ 4g-\	.
.	8aa-\
4A-\ 4g-\	8bb-\L
.	8ccc\J
=48	=48
4D-\	[2.ddd-\
8A-\L 8f\	.
8A-\J 8f\	.
8A-\L 8f\	.
8A-\J 8f\	.
=49	=49
4AA-/	4ddd-\]
4A-\ 4f\	2r
4A-\ 4f\	.
=50	=50
!!linebreak:original
4D-\	2.r
8A-\L 8f\	.
8A-\J 8f\	.
8A-\L 8f\	.
8A-\J 8f\	.
=51	=51
4AA-/	2.r
4A-\ 4f\	.
4A-\ 4f\	.
=52	=52
4r	4r
[2Gn\ [2B-\ [2dn\	4gn/
.	4b-\
=53	=53
2.G\] 2.B-\] 2.d\]	4ddn\
.	4ff\
.	4aan\
=54	=54
2.G-\ 2.B-\ 2.d-\	2.ddd-\
=55	=55
2.G-\ 2.B-\ 2.d-\	2.fff\
=56	=56
2.G-\ 2.B-\ 2.d-\	2.aaa-\
=57	=57
2.AAA-/ 2.AA-/	2.bb-\ 2.bbb-\
=58	=58
2.DDD-/ 2.DD-/	2.ddd-\ 2.dddd-\
=59	=59
2.AA-/ 2.F/	2.dd-\ 2.aa-\
==	==
*-	*-
